X: 62
T: 62. Wer nur den lieben Gott l\"a\sst walten
N: Derived from chor062.krn
C: Johann Sebastian Bach
%%abc-version 2.0
%%abcx-abcm2ps-target-version 5.9.1 (29 Sep 2008)
%%abc-creator hum2abc beta
%%abcx-conversion-date 2019/03/11 17:28:17
%%abc-edited-by Craig Stuart Sapp
%%humdrum-veritas 1886231091
%%humdrum-veritas-data 1702932896
%%
%%barnumbers 0
L: 1/4
M: C
%%staves [1 2 3 4]
V: 1 clef=treble
V: 2 clef=treble
V: 3 clef=treble-8
V: 4 clef=bass
K: D
[V:1] F [I:setbarnb 1]| 
[V:2] D/E/ | 
[V:3] B/c/ | 
[V:4] B,, | 
[V:1] Bcdc | 
[V:2] FFFF/E/ | 
[V:3] dcB^A | 
[V:4] B,^A,B,F, | 
[V:1] Bc/B/^A!fermata!F | 
[V:2] DGF!fermata!C | 
[V:3] Be/d/c!fermata!^A | 
[V:4] G,/F,/E,F,!fermata!F,, | 
[V:1] z=AA=G | 
[V:2] xFFE | 
[V:3] xcd=A | 
[V:4] zF,B,,C, | 
[V:1] FBB^A | 
[V:2] E/D/DGF | 
[V:3] ABc/d/e | 
[V:4] D,G,/F,/E,F, | 
[V:1] !fermata!B3 :|]  
[V:2] !fermata!F3 :|]  
[V:3] !fermata!d3 :|]  
[V:4] !fermata!B,,3 :|]  
[V:1] c [I:setbarnb 6]| 
[V:2] F | 
[V:3] ^A | 
[V:4] F, | 
[V:1] deff | 
[V:2] FAAA | 
[V:3] Bcdd | 
[V:4] B,=A,/G,/ F,/E,/D, | 
[V:1] e3/d/!fermata!df | 
[V:2] BA!fermata!AA/B/ | 
[V:3] dc!fermata!fd | 
[V:4] G,A,!fermata!D,D, | 
[V:1] edcB/c/ | 
[V:2] cFG/F/ F/E/ | 
[V:3] ^ABB/^A/B | 
[V:4] C,B,,E,/F,/G, | 
[V:1] dc!fermata!B |]  
[V:2] FF/E/!fermata!^D |]  
[V:3] B^A!fermata!F |]  
[V:4] F,/E,/F,!fermata!B,, |]  



